!!!!SEGMENT: pl-wn--sd-xvi-qu-273--105_gomolka-mikolaj--chwalcie-pana-imienia-jego-wzywajcie.krn
!!!cenid: 15xx:310
!!!COM: Gomółka, Mikołaj
!!!COM-rismid: pe30013343
!!!CDT: ~1535->1591/04/30
!!!CNT: Polish
!!!GTL: Melodiae na psalterz polski
!!!OTL: CV. Chwalcie Pana, imienia Jego wzywajcie
!!!ONB: PSALM CV. Confitemini Domino.
!!!PDT: 1580
!!!AGN: Sacred
!!!SMS-siglum: PL-Wn
!!!SMS-shelfmark: SD XVI.Qu.273
!!!SMS-shelfwork: 105 G
!!!NIFC-rismid:
!!!ONB-nifc: Melodiae na psalterz polski
**kern	**text	**kern	**text	**kern	**text	**kern	**text
*part4	*part4	*part3	*part3	*part2	*part2	*part1	*part1
*staff4	*staff4	*staff3	*staff3	*staff2	*staff2	*staff1	*staff1
*clefF4	*	*clefC3	*	*clefC3	*	*clefC1	*
*k[]	*	*k[]	*	*k[]	*	*k[]	*
*A:	*	*A:	*	*A:	*	*A:	*
*M2/1	*	*M2/1	*	*M2/1	*	*M2/1	*
*met(C|)	*	*met(C|)	*	*met(C|)	*	*met(C|)	*
*I"BASSUS.	*	*I"TENOR.	*	*I"ALTUS.	*	*I"CANTUS.	*
=1-	=1	=1-	=1	=1-	=1	=1-	=1
1AA/	Chwál-	1A/	Chwál-	1e\	Chwál-	1a\	Chwál-
2AA/	-ćie	2A/	-ćie	2e\	-ćie	2cc\	-ćie
2AA/	pá-	2A/	pá-	2e\	pá-	2cc\	pá-
=2-	=2	=2-	=2	=2-	=2	=2-	=2
2E\	-ná,	2G/	-ná,	2e\	-ná,	2b\	ná,
2F\	i-	2A/	i-	4c\	i-	2a\	i-
.	.	.	.	4d\	.	.	.
2E\	-mię-	2B/	-mię-	2.e\	-mię-	2.g/	-mię-
2E\	-(nia)	2B/	-(nia)	.	.	.	.
.	.	.	.	4d\	-(nia)	4g/	-(nia)
=3-	=3	=3-	=3	=3-	=3	=3-	=3
2A\	ie-	2c/	ie-	4c/	ie-	2e/	ie-
.	.	.	.	4B/	.	.	.
2D/	-go	2d\	-go	2A/	-go	2f#X/	-(go)
2E\	wzy-	2B/	wzy-	2.e\	wzy-	4g#X/	wzy-
.	.	.	.	.	.	2a\	wa(y-
2E\	-(way-	2B/	-(way-	.	.	.	.
!	!	!	!	!	!	!LO:SIC:s=4g#:v	!
.	.	.	.	4d\	-(way-	4gny/	.
=4-	=4	=4-	=4	=4-	=4	=4-	=4
2AA/	-ćie.)	2A/	-ćie.)	2c/	-ćie.)	2a\	-ćie.)
2D/	I	2A/	I	2f\	I	2a\	I
2C/	sprá-	2A/	spra-	2e\	spra-	2a\	spra-
2D/	-wy	4d\	-wy	2f\	wy	2a\	-(wy)
.	.	4c\	.	.	.	.	.
=5-	=5	=5-	=5	=5-	=5	=5-	=5
2E\	ie-	4B/	ie-	2e\	ie-	2g#X/	ie-
.	.	4A/	.	.	.	.	.
2F\	-go	1A/	-go	2c/	-go	2a\	-go
1E\	świá-	.	.	2.e\	świá-	1b\	świá-
.	.	2G#X/	świá-	.	.	.	.
.	.	.	.	4d\	.	.	.
=6-	=6	=6-	=6	=6-	=6	=6-	=6
2AA/	-(tu)	2A/	-(tu)	4c\	-tu	2a\	-(tu)
.	.	.	.	4d\	.	.	.
2E\	o-	2B/	o-	2.e\	o-	2gny/	o-
2.AA/	-po-	2c/	-po-	.	.	2a\	-po-
.	.	.	.	4d\	.	.	.
.	.	1c\	-wiá-	4c\	-po-	2cc\	-wiá-
4BB/	.	.	.	4d\	.	.	.
=7-	=7	=7-	=7	=7-	=7	=7-	=7
4C/	-wiá-	.	.	2.e\	-wiá-	1g\	-dáy-
4D/	.	.	.	.	.	.	.
2E\	-dáy-	2Gny/	-dáy-	.	.	.	.
.	.	.	.	4d\	-dáy-	.	.
*	*	*000/left	*	*	*	*000/left	*
!	!	!	!	!LO:N:vis=00	!	!	!
000AA/	-ćie.	000A/	-ćie.	000c#/	-ćie.	000e/	-ćie.
==	==	==	==	==	==	==	==
*-	*-	*-	*-	*-	*-	*-	*-
!!!RDF**kern: l = terminal long
!!!system-decoration: s1,s2,s3,s4
!!!ENC: Marta Lawrence
!!!END: 2020-02-16
!!!URL-scan: https://polona.pl/item/melodiae-na-psalterz-polski,Nzk3MTM4ODQ/245 Scan on Polona
!!!IIIF: https://polona.pl/iiif/item/Nzk3MTM4ODQ/manifest.json
